FINK
CUT[AUF MATROSEN DIE ANKER GELICHTET]
REG[Europa, Mitteleuropa, Deutschland]
KEY[F0754  08  C 4/4]
MEL[-5-5  1_111_-71  2_-5_
    -5_-5-5  -5_0-54_32  2_1_0__
    1__-7_-7_  -6__0__
    -5__-6_-7_  1__
    21-71  2_223212  3__
    2432  1_111-7-6-7  1__0_ //] >>
FCT[Staende -, Matrosen - Lied]
